X: 90
T: Love and a Bottle
T: Longways for as many as will.
%R: slip-jig
B: Daniel Wright "Wright's Compleat Collection of Celebrated Country Dances" 1740 p.45
S: http://library.efdss.org/cgi-bin/dancebooks.cgi
Z: 2014 John Chambers <jc:trillian.mit.edu>
N: The repeat pattern isn't clear from the dance description.
M: 9/4
L: 1/4
K: G
% - - - - - - - - - - - - - - - - - - - - - - - - -
[|\
G3 B2G AFD | A2B c>ec dBG |\
g3 f2e dcB | ABG F2G AFD |]
[|\
A3 D2c B2A | dcB ABG FED |\
g3 f2e dcB | ABG ADF G3 |]
% - - - - - - - - - - - - - - - - - - - - - - - - -
%%begintext align
%% The 1st Man take the 2d Man by the Hands
%% and turn round into their own Places again
%% .| then lead thro' between the two We. into
%% their own Places again :| the We. doing
%% the like after .| then the 1st Cu. cast off
%% below the 2d Cu. and go Back to Back,
%% and lead up between the lower Cu. on the
%% outside of the 1st Cu. set to your Partner,
%% and cast off into the 2d Cu. Place.
%%endtext
% - - - - - - - - - - - - - - - - - - - - - - - - -
%%sep 2 4 300
